X: 1211
T: Hon.ble George Baillie's Strathspey
%R: strathspey
B: Niel Gow & Sons "A Collection of Strathspey Reels, etc." v.1 p.21 #1
Z: 2022 John Chambers <jc:trillian.mit.edu>
M: C|
L: 1/8
K: F
% - - - - - - - - - -
% Voice 1 reformatted for _ _-bar lines, for compactness and proofreading.
V: 1 staves=2
f |\
c<FTc>A c<FTf>d | c<FTc>A {A}G2G<f | c<FTc>A c<FTa>g | f<dTc>A F2F :| c | f>g{fg}a>g f>ca<(g | f)>dTc>A {A}G2G>c |
f>g{fg}a>g f<ca>g | f<dTc>A F2F>c || f>g{fg}a>g f>ca>g f<dc>A {A}G2G>A | F<cA<c F<ag<a | f>dTc>A F2F |]
% - - - - - - - - - -
% Voice 2 preserves the staff layout in the book.
V: 2 clef=bass middle=d
z | f2f2 f2f2 | f2f2 g2g2 | f2f2 f2f2 | c2c2 f2f :| z | f2f2 f2f2 | f2f2 g2g2 |
f2f2 f2f2 | c2c2 f2f2 || f2f2 f2f2 | f2f2 g2g2 | f2f2 f2f2 | c2c2 f2f |]
% - - - - - - - - - -


